public/heart-pulse-solid.svg

<svg xmlns="http://www.w3.org/2000/svg" viewBox="0 0 512 512"><!--! Font Awesome Pro 6.3.0 by @fontawesome - https://fontawesome.com License - https://fontawesome.com/license (Commercial License) Copyright 2023 Fonticons, Inc. --><path d="M228.3 469.1L47.6 300.4c-4.2-3.9-8.2-8.1-11.9-12.4h87c22.6 0 43-13.6 51.7-34.5l10.5-25.2 49.3 109.5c3.8 8.5 12.1 14 21.4 14.1s17.8-5 22-13.3L320 253.7l1.7 3.4c9.5 19 28.9 31 50.1 31H476.3c-3.7 4.3-7.7 8.5-11.9 12.4L283.7 469.1c-7.5 7-17.4 10.9-27.7 10.9s-20.2-3.9-27.7-10.9zM503.7 240h-132c-3 0-5.8-1.7-7.2-4.4l-23.2-46.3c-4.1-8.1-12.4-13.3-21.5-13.3s-17.4 5.1-21.5 13.3l-41.4 82.8L205.9 158.2c-3.9-8.7-12.7-14.3-22.2-14.1s-18.1 5.9-21.8 14.8l-31.8 76.3c-1.2 3-4.2 4.9-7.4 4.9H16c-2.6 0-5 .4-7.3 1.1C3 225.2 0 208.2 0 190.9v-5.8c0-69.9 50.5-129.5 119.4-141C165 36.5 211.4 51.4 244 84l12 12 12-12c32.6-32.6 79-47.5 124.6-39.9C461.5 55.6 512 115.2 512 185.1v5.8c0 16.9-2.8 33.5-8.3 49.1z"/></svg>

<?xml version="1.0" encoding="UTF-8" standalone="no"?>
<!DOCTYPE svg PUBLIC "-//W3C//DTD SVG 1.1//EN" "http://www.w3.org/Graphics/SVG/1.1/DTD/svg11.dtd">
<svg width="100%" height="100%" viewBox="0 0 768 768" version="1.1" xmlns="http://www.w3.org/2000/svg" xmlns:xlink="http://www.w3.org/1999/xlink" xml:space="preserve" xmlns:serif="http://www.serif.com/" style="fill-rule:evenodd;clip-rule:evenodd;stroke-linejoin:round;stroke-miterlimit:2;">
    <path d="M768,30.72C768,13.765 754.235,0 737.28,0L30.72,0C13.765,0 0,13.765 0,30.72L0,737.28C0,754.235 13.765,768 30.72,768L737.28,768C754.235,768 768,754.235 768,737.28L768,30.72Z" style="fill:rgb(33,33,33);"/>
    <g transform="matrix(1,0,0,1,128,128)">
        <path d="M228.3,469.1L47.6,300.4C43.4,296.5 39.4,292.3 35.7,288L122.7,288C145.3,288 165.7,274.4 174.4,253.5L184.9,228.3L234.2,337.8C238,346.3 246.3,351.8 255.6,351.9C264.9,352 273.4,346.9 277.6,338.6L320,253.7L321.7,257.1C331.2,276.1 350.6,288.1 371.8,288.1L476.3,288.1C472.6,292.4 468.6,296.6 464.4,300.5L283.7,469.1C276.2,476.1 266.3,480 256,480C245.7,480 235.8,476.1 228.3,469.1ZM503.7,240L371.7,240C368.7,240 365.9,238.3 364.5,235.6L341.3,189.3C337.2,181.2 328.9,176 319.8,176C310.7,176 302.4,181.1 298.3,189.3L256.9,272.1L205.9,158.2C202,149.5 193.2,143.9 183.7,144.1C174.2,144.3 165.6,150 161.9,158.9L130.1,235.2C128.9,238.2 125.9,240.1 122.7,240.1L16,240.1C13.4,240.1 11,240.5 8.7,241.2C3,225.2 0,208.2 0,190.9L0,185.1C0,115.2 50.5,55.6 119.4,44.1C165,36.5 211.4,51.4 244,84L256,96L268,84C300.6,51.4 347,36.5 392.6,44.1C461.5,55.6 512,115.2 512,185.1L512,190.9C512,207.8 509.2,224.4 503.7,240Z" style="fill:rgb(233,30,99);fill-rule:nonzero;"/>
    </g>
</svg>
